X:129
T:Twenty may play as well as one
M:2/4
L:1/8
B:Thompson's Compleat Collection of 200 Favourite Country Dances, vol. 1 (London, 1757)
Z:Transcribed and edited by Flynn Titford-Mock, 2007
Z:abc's:AK/Fiddler's Companion
K:G
B|GB (de/f/)|gdBG|ceAc|BGAF|GB (de/f/)|gdBG|ceAc|B2 G:|
|:B|(g/f/e/f/) (g/f/e/f/)|gBgB|(g/f/e/f/) (g/f/e/f/)|aAaA|(g/f/e/f/) (g/f/e/f/)|gBdB|(c/A/c) (B/G/F)|G2 G,:|

